X: 35172
T: Roof Thatcher's Daughter
R: mazurka
M: 3/4
K: Amajor
cB|:A2 AE Ac|ef ec Ac|B2 Bd cB|cA E2 cB|
A2 AE Ac|ef ec Ac|B2 Bd cB|1 A2 A2 cB:|2 A2 Ac ea||
f2 fe ce|f2 fg af|ef ec Ac|aA gA eA|
f2 fe ce|f2 fg af|ef ec Bc|1 A2 Ae ag:|2 A3 A cB||

